X:1
T:Title
%%score { ( 1 2 ) | ( 3 4 ) }
L:1/8
Q:1/4=100
M:4/4
K:Eb
V:1 treble nm="Grand Piano"
V:2 treble 
V:3 bass 
V:4 bass 
V:1
 B3 B cB z F | G2 G2 A G3 | G3 G B2 BG | F2 =A2 [DB]4 | B3 B cB z F | G2 G2 A G3 | %6
w: J.~M.~Dungan * * * *||||||
 [CF][Fc][CFA][A,CF][K:bass] [G,B,E]2 [F,B,D]2 | B,4- [B,E]4 | [CEG]3 [CEA] [CEG]2 [CEc]2 | %9
w: |||
 [DG=B]2 [FGd]2 [FGd] [EGc]3 | c2 AF G2 EF |[M:9/8] [CEG]2 [=B,DG]- [B,DG] [CEG]2 [DB]3 | %12
w: |||
[M:4/4] B3 B cB z F | G2 G2 A G3 | [CF]c[CFA]F E2 D2 | F4 E4 |[M:12/8] z3 B6- B2 z | %17
w: |||||
[M:9/8] .c3 z e2- e3- |[M:3/8] e3 | B2 B |[M:6/4] .c12 |[M:9/8] B8- B |[M:3/8] B2 B |[M:6/4] .e12 | %24
w: |||||||
[M:9/8] z c2- c6 |[M:3/8] z3 |[M:6/4] z2 z [G,E]2 [G,E] [G,E][G,E][CEA] [B,EG]2 [A,DF] | %27
w: |||
[M:9/8] E8- E[Q:1/4=99][Q:1/4=97][Q:1/4=96][Q:1/4=94][Q:1/4=93][Q:1/4=91][Q:1/4=90][Q:1/4=88][Q:1/4=87][Q:1/4=85][Q:1/4=84][Q:1/4=82][Q:1/4=81][Q:1/4=79][Q:1/4=78][Q:1/4=76] |] %28
w: |
V:2
 z4 z2 E2 | x8 | x8 | x8 | z4 z2 E2 | x8 | x4[K:bass] x4 | [A,F]4 z4 | x8 | x8 | x8 |[M:9/8] x9 | %12
[M:4/4] z4 z2 E2 | x8 | x8 | x8 |[M:12/8] B2 B z3 G2 G G2 [GB] |[M:9/8] G-[GB]G B G2 G2 G | %18
[M:3/8] G G2 | x3 |[M:6/4] z2 z [EA]2 [EA] [EA]2 [EAd][EAf][EAe][EAc] |[M:9/8] G2 G AAA G G2 | %22
[M:3/8] x3 |[M:6/4] z2 z G2 G G2 GGFE |[M:9/8] [A,EA] [EA]2 [EA][EA][EA] [EA] [EA]2 |[M:3/8] x3 | %26
[M:6/4] x12 |[M:9/8] z2 B, C2 C B,3 |] %28
V:3
 [E,G,E]3 [E,G,E] A,G,E,-[E,A,] | [E,B,E]2 [E,B,E]2 [E,CE] [E,B,E]3 | %2
 [E,B,E]3 [E,B,E] [E,G,E]2 [E,E]-[E,B,E] | [F,B,D]2 [F,CE]2 [B,,B,]4 | %4
 [E,G,E]3 [E,G,E] [E,E]-[E,G,E]E,-[E,A,] | [E,B,E]2 [E,B,E]2 [E,CE] [E,B,E]3 | %6
 [A,,A,][A,,A,]A,,A,, B,,2 B,,2 | z4 G,4 | C,3 C, C,2 C,2 | G,2 G,2 C, C,3 | %10
 [F,A,F]2 [CF]A, [G,E]2 z D |[M:9/8] G,,2 G,,- G,, C,2 [B,,A,]3 | %12
[M:4/4] [E,G,E]3 [E,G,E] [E,E]-[E,G,E]E,-[E,A,] | [E,B,E]2 [E,B,E]2 [E,CE] [E,B,E]3 | %14
 z F z [A,C] [B,,G,B,]2 [B,,F,B,]2 | A,4 z4 |[M:12/8] z6 [E,E]2 [E,E] [E,E]2 [E,E] | %17
[M:9/8] [E,E]2 [E,B,E] [E,G,E] [E,B,]2 [E,B,]2 [E,B,] |[M:3/8] [E,B,] [E,B,]2 | z3 | %20
[M:6/4] z2 z A,,2 A,, A,,2 A,,A,,A,,A,, |[M:9/8] [E,E]2 [E,E] [E,C][E,C][E,C] [E,B,] [E,B,]2 | %22
[M:3/8] z3 |[M:6/4] z2 z [E,B,]2 [E,B,] [E,B,]2 [E,B,E][E,B,E][E,A,D][E,G,] | %24
[M:9/8] A,, A,,2 A,,A,,A,, A,, A,,2 |[M:3/8][K:treble] cde |[M:6/4] .B12[K:bass] | %27
[M:9/8] [E,G,]2 [E,G,] [E,A,]2 [E,A,] [E,G,]3 |] %28
V:4
 z4 [E,E]2 .G,2 | x8 | z4 z2 .G,2 | x8 | z4 .A,2 .G,2 | x8 | x8 | E,8 | x8 | x8 | %10
 z2 F,2 z2 [G,,G,]2 |[M:9/8] x9 |[M:4/4] z4 .A,2 .G,2 | x8 | [A,,A,]2 A,,2 z4 | %15
 [E,B,]4- [E,G,B,]4 |[M:12/8] x12 |[M:9/8] x9 |[M:3/8] x3 | x3 |[M:6/4] x12 |[M:9/8] x9 | %22
[M:3/8] x3 |[M:6/4] x12 |[M:9/8] x9 |[M:3/8][K:treble] x3 | %26
[M:6/4] z2 z[K:bass] B,,2 B,, B,,B,,B,, B,,2 B,, |[M:9/8] x9 |] %28

